Spawning communication thread
Using default UR script/file
Callback IP = 192.168.100.2
Callback Port = 33333
Ready to accept incoming connections on port '33333'
Sending script to the robot
Send Command:
def rwhw_urscript():
	textmsg("PROGRAM STARTED")
    global qtarget = [ 0,0,0,0,0,0]
    global posetarget = p[ 0,0,0,0,0,0]
    global dqtarget = [ 0,0,0,0,0,0 ]
    global speed = 0.75
    global thrd  = -1
    global motionFinished = 0
    global isServoing = 0
    global isStopped = 1
    global receive_buffer = [8, 0, 0, 0, 0, 0, 0, 0, 0]
    global receive_buffer18 = [18, 0, 0, 0, 0, 0, 0, 0, 0, 0, 0, 0, 0, 0, 0, 0, 0, 0, 0]
    global FLOAT_SCALE = 0.0001  
    global force_selection = [ 0,0,0,0,0,0]
    global wrench = [ 0,0,0,0,0,0]
    global force_limits = [ 0,0,0,0,0,0]
    global force_frame = p[0,0,0,0,0,0]
    global mass = 0.0
    global center_of_gravity = [0, 0, 0]
	
    def stopRobot():
        enter_critical	  
        if thrd != -1:
            kill thrd
            thrd = -1
        end
        exit_critical
        textmsg("Stop Robot")
        stopj(10)
        isServoing = 0
        isStopped = 1
    end


    #Thread for running the movej command
    thread moveJthread():
        textmsg("Calls movej")
        textmsg(qtarget)
        textmsg(speed)
        movej(qtarget)
        textmsg("MoveJ called")
        #We reset our thread handle to -1 to indicate that the motion is finish.
        #This is done in a critical section to avoid race conditions
        enter_critical
        thrd = -1
        motionFinished = 1
        exit_critical
        textmsg("MoveJ done")
    end

    #Thread for running the movel command
	thread moveLthread():
        textmsg("Calls moveT")
        movel(posetarget)

        #We reset our thread handle to -1 to indicate that the motion is finish.
        #This is done in a critical section to avoid race conditions
        enter_critical	
        thrd = -1
        motionFinished = 1
        exit_critical
    end


    #Thread for running the servoj comand. The thread constantly updates the target 
    #of the servoj command to the most recently given target.
    thread servoQthread():
        textmsg("Start ServoQ Thread")
        while 1 == 1:
            enter_critical
            q = qtarget
            exit_critical
            #textmsg("Calls ServoJ")
            servoj(q, 3, 0.75, 0.008)            
        end
        enter_critical
        thrd = -1
        motionFinished = 1
        exit_critical
    end



    def moveQ():
        textmsg("MoveQ")
        cnt = 0           
        enter_critical  
        motionFinished = 0      
        while cnt < 6:
            qtarget[cnt] = receive_buffer[cnt+2]*FLOAT_SCALE
            cnt = cnt + 1
        end
        exit_critical
        textmsg(qtarget)
        textmsg("Get Speed")
        speed = receive_buffer[7]*FLOAT_SCALE
      	textmsg("speed ")
        textmsg(speed)
        enter_critical
        if thrd != -1:			
            textmsg("Kills old thread")
            kill thrd
            isServoing = 0
            textmsg("Continues after kill")
            thrd = -1
        end
        exit_critical
        
        enter_critical
        #We only wish to start a new thread if our previous motion is finished
        if thrd == -1:
            thrd = run moveJthread()
        end
        exit_critical
    end

    def moveT():
		textmsg("MOVET")
        #Reads in x,y,z,ax,ay,az,speed
        motionFinished = 0
		cnt = 0
		enter_critical
        while cnt < 6:
            posetarget[cnt] = receive_buffer[cnt+2]*FLOAT_SCALE
            cnt = cnt + 1
        end
		exit_critical
		
        textmsg(posetarget)
        
        speed = receive_buffer[7]*FLOAT_SCALE
    
		enter_critical		
        if thrd != -1:			
            kill thrd
            isServoing = 0
            thrd = -1
        end
        exit_critical
        
        enter_critical
        #We only wish to start a new thread if our previous motion is finished
        if thrd == -1:
            thrd = run moveLthread()
        end
        exit_critical
    end

    def servoQ():
        cnt = 0           
        enter_critical        
        while cnt < 6:
            qtarget[cnt] = receive_buffer[cnt+2]*FLOAT_SCALE
            cnt = cnt + 1
        end
        exit_critical

  		#textmsg(isServoing)

        enter_critical
        if isServoing == 0:
            textmsg(qtarget)
            isServoing = 1 
            if thrd == -1:
                textmsg("Start ServoQThread")
                thrd = run servoQthread()
            end
        end
        exit_critical
    end

    def force_mode_start():
        cnt = 0           
        #enter_critical        
        while cnt < 6:
            force_frame[cnt] = receive_buffer[cnt+2]*FLOAT_SCALE
            cnt = cnt + 1
        end

		receive_buffer18 = socket_read_binary_integer(18)

        cnt = 0           
        while cnt < 6:
        	force_selection[cnt] = receive_buffer18[cnt+1]*FLOAT_SCALE
            wrench[cnt] = receive_buffer18[cnt+1+6]*FLOAT_SCALE
            force_limits[cnt] = receive_buffer18[cnt+1+12]*FLOAT_SCALE
            cnt = cnt + 1
        end

        textmsg("Force Frame: ")
        textmsg(force_frame)
        textmsg("Force Selection: ")
        textmsg(force_selection)
        textmsg("Wrench:")
        textmsg(wrench)
        textmsg("Force Limits:")
        textmsg(force_limits)
        force_mode(force_frame, force_selection, wrench, 2, force_limits)

        #exit_critical
    end

	
    def force_mode_update():
        cnt = 0           
        #enter_critical        
        while cnt < 6:
            wrench[cnt] = receive_buffer[cnt+2]*FLOAT_SCALE
            cnt = cnt + 1
        end

        force_mode(force_frame, force_selection, wrench, 2, force_limits)

        #exit_critical
    end
	
	
	def force_mode_end():
        end_force_mode()
	end
	
	
    def teach_mode_start():
    end
	
    def teach_mode_end():
    end

	def set_io():
		textmsg("Step OI")
		id = receive_buffer[2]
		onoff = receive_buffer[3]
		if onoff == 1:
			set_digital_out(id, True)
		else:
			set_digital_out(id, False)
		end	
	end
	
	
	def set_tcp_payload():
		textmsg("Setting payload")
    	cnt = 0
		mass = receive_buffer[cnt+2]*FLOAT_SCALE
		cnt = cnt + 1
		while cnt < 4:
			center_of_gravity[cnt - 1] = receive_buffer[cnt+2]*FLOAT_SCALE
			cnt = cnt + 1
		end
	
		textmsg("New payload: ")
		textmsg(mass)
		textmsg("Center of gravity: ")
		textmsg(center_of_gravity)
		
		set_payload(mass, center_of_gravity) 
    end

	
#
# The main loop is running below
#
	
    #Setup the host name
    host = "192.168.100.2"
    port = 33333
	textmsg("Host")
	textmsg(host)
	textmsg("Port")
	textmsg(port)
    opened = socket_open(host, port)
    textmsg("Socket Status")
    textmsg(opened)

    while opened == False:
        opened = socket_open(host, port)
    end 

    textmsg("Socket opened !!")
    errcnt = 0
	socket_send_byte(0)
    while errcnt < 1:       
		receive_buffer = socket_read_binary_integer(8)

        if motionFinished == 1:
            #textmsg("Sends finished")
            socket_send_byte(0)
        else:
            socket_send_byte(1)
        end

        #textmsg(receive_buffer)
        if receive_buffer[0] != 8:
			textmsg("Did not receive 8 integers as expected")
            stopRobot()
            errcnt = errcnt + 1
        elif receive_buffer[1] == 0: #0: Stop Robot
        	if isStopped == 0:
            	stopRobot()
            end            
        elif receive_buffer[1] == 1: #1: Move to Q
        	isStopped = 0
            moveQ()
        elif receive_buffer[1] == 2: #2: Move to T
			isStopped = 0
            moveT()
        elif receive_buffer[1] == 3: #3: Servo to T
			textmsg("servo")
			isStopped = 0
            servoQ()
        elif receive_buffer[1] == 4: #4: Start Force Mode Base
        	textmsg("Force Mode Start")
            isStopped = 0
            force_mode_start()
        elif receive_buffer[1] == 5: #5: Force Mode Update
            isStopped = 0
            force_mode_update()
        elif receive_buffer[1] == 6: #6: End Force Mode
            force_mode_end()
        elif receive_buffer[1] == 7: #7: Teach mode start
            teach_mode_start()
        elif receive_buffer[1] == 8: #8: Teach mode end
            teach_mode_end()
		elif receive_buffer[1] == 9: #9: Set IO
			set_io()
		elif receive_buffer[1] == 10: #10: Set Payload
			set_tcp_payload()	
        elif receive_buffer[1] == 9999: #1: Do nothing
        	isStopped = 0
            #Right motion already taken
        end


		
        #if motionFinished == 1:
        #textmsg("Sends finished")
        #socket_set_var("FIN", 1)
        #motionFinished = 0
        #end
    end #end for While True:
    textmsg("Program Finished")
end
run program

Bytes to be transfered '8643' and bytes actually transfered '8643'
Successfully sent the script to the robot
Incoming connection accepted
Received the byte/char ' ' from the connection.
Robot is stopped, going to send stop.
Sent all of the '32' bytes.
Received the byte/char '' from the connection.
Robot is stopped, going to send stop.
Sent all of the '32' bytes.
Received the byte/char '' from the connection.
Robot is stopped, going to send stop.
Sent all of the '32' bytes.
Received the byte/char '' from the connection.
Robot is stopped, going to send stop.
Sent all of the '32' bytes.
Received the byte/char '' from the connection.
Robot is stopped, going to send stop.
Sent all of the '32' bytes.
Received the byte/char '' from the connection.
Robot is stopped, going to send stop.
Sent all of the '32' bytes.
Received the byte/char '' from the connection.
Robot is stopped, going to send stop.
Sent all of the '32' bytes.
Received the byte/char '' from the connection.
Robot is stopped, going to send stop.
Sent all of the '32' bytes.
Received the byte/char '' from the connection.
Robot is stopped, going to send stop.
Sent all of the '32' bytes.
Received the byte/char '' from the connection.
Robot is stopped, going to send stop.
Sent all of the '32' bytes.
Received the byte/char '' from the connection.
Robot is stopped, going to send stop.
Sent all of the '32' bytes.
Received the byte/char '' from the connection.
Robot is stopped, going to send stop.
Sent all of the '32' bytes.
Received the byte/char '' from the connection.
Robot is stopped, going to send stop.
Sent all of the '32' bytes.
Received the byte/char '' from the connection.
Robot is stopped, going to send stop.
Sent all of the '32' bytes.
Received the byte/char '' from the connection.
Robot is stopped, going to send stop.
Sent all of the '32' bytes.
Received the byte/char '' from the connection.
Robot is stopped, going to send stop.
Sent all of the '32' bytes.
Received the byte/char '' from the connection.
Robot is stopped, going to send stop.
Sent all of the '32' bytes.
Received the byte/char '' from the connection.
Robot is stopped, going to send stop.
Sent all of the '32' bytes.
Received the byte/char '' from the connection.
Robot is stopped, going to send stop.
Sent all of the '32' bytes.
Received the byte/char '' from the connection.
Robot is stopped, going to send stop.
Sent all of the '32' bytes.
Received the byte/char '' from the connection.
Robot is stopped, going to send stop.
Sent all of the '32' bytes.
Received the byte/char '' from the connection.
Robot is stopped, going to send stop.
Sent all of the '32' bytes.
Received the byte/char '' from the connection.
Robot is stopped, going to send stop.
Sent all of the '32' bytes.
Received the byte/char '' from the connection.
Robot is stopped, going to send stop.
Sent all of the '32' bytes.
Received the byte/char '' from the connection.
Robot is stopped, going to send stop.
Sent all of the '32' bytes.
Received the byte/char '' from the connection.
Robot is stopped, going to send stop.
Sent all of the '32' bytes.
Received the byte/char '' from the connection.
Robot is stopped, going to send stop.
Sent all of the '32' bytes.
Received the byte/char '' from the connection.
Robot is stopped, going to send stop.
Sent all of the '32' bytes.
Received the byte/char '' from the connection.
Robot is stopped, going to send stop.
Sent all of the '32' bytes.
Received the byte/char '' from the connection.
Robot is stopped, going to send stop.
Sent all of the '32' bytes.
Received the byte/char '' from the connection.
Robot is stopped, going to send stop.
Sent all of the '32' bytes.
Received the byte/char '' from the connection.
Robot is stopped, going to send stop.
Sent all of the '32' bytes.
Received the byte/char '' from the connection.
Robot is stopped, going to send stop.
Sent all of the '32' bytes.
Received the byte/char '' from the connection.
Robot is stopped, going to send stop.
Sent all of the '32' bytes.
Received the byte/char '' from the connection.
Robot is stopped, going to send stop.
Sent all of the '32' bytes.
Received the byte/char '' from the connection.
Robot is stopped, going to send stop.
Sent all of the '32' bytes.
Received the byte/char '' from the connection.
Robot is stopped, going to send stop.
Sent all of the '32' bytes.
Received the byte/char '' from the connection.
Robot is stopped, going to send stop.
Sent all of the '32' bytes.
Received the byte/char '' from the connection.
Robot is stopped, going to send stop.
Sent all of the '32' bytes.
Received the byte/char '' from the connection.
Robot is stopped, going to send stop.
Sent all of the '32' bytes.
Received the byte/char '' from the connection.
Robot is stopped, going to send stop.
Sent all of the '32' bytes.
Received the byte/char '' from the connection.
Robot is stopped, going to send stop.
Sent all of the '32' bytes.
Received the byte/char '' from the connection.
Robot is stopped, going to send stop.
Sent all of the '32' bytes.
Received the byte/char '' from the connection.
Robot is stopped, going to send stop.
Sent all of the '32' bytes.
Received the byte/char '' from the connection.
Robot is stopped, going to send stop.
Sent all of the '32' bytes.
Received the byte/char '' from the connection.
Robot is stopped, going to send stop.
Sent all of the '32' bytes.
Received the byte/char '' from the connection.
Robot is stopped, going to send stop.
Sent all of the '32' bytes.
Received the byte/char '' from the connection.
Robot is stopped, going to send stop.
Sent all of the '32' bytes.
Received the byte/char '' from the connection.
Robot is stopped, going to send stop.
Sent all of the '32' bytes.
Received the byte/char '' from the connection.
Robot is stopped, going to send stop.
Sent all of the '32' bytes.
Received the byte/char '' from the connection.
Robot is stopped, going to send stop.
Sent all of the '32' bytes.
Received the byte/char '' from the connection.
Robot is stopped, going to send stop.
Sent all of the '32' bytes.
Received the byte/char '' from the connection.
Robot is stopped, going to send stop.
Sent all of the '32' bytes.
Received the byte/char '' from the connection.
Robot is stopped, going to send stop.
Sent all of the '32' bytes.
Received the byte/char '' from the connection.
Robot is stopped, going to send stop.
Sent all of the '32' bytes.
Received the byte/char '' from the connection.
Robot is stopped, going to send stop.
Sent all of the '32' bytes.
Received the byte/char '' from the connection.
Robot is stopped, going to send stop.
Sent all of the '32' bytes.
Received the byte/char '' from the connection.
Robot is stopped, going to send stop.
Sent all of the '32' bytes.
Received the byte/char '' from the connection.
Robot is stopped, going to send stop.
Sent all of the '32' bytes.
Received the byte/char '' from the connection.
Robot is stopped, going to send stop.
Sent all of the '32' bytes.
Received the byte/char '' from the connection.
Robot is stopped, going to send stop.
Sent all of the '32' bytes.
Received the byte/char '' from the connection.
Robot is stopped, going to send stop.
Sent all of the '32' bytes.
Received the byte/char '' from the connection.
Robot is stopped, going to send stop.
Sent all of the '32' bytes.
Received the byte/char '' from the connection.
Robot is stopped, going to send stop.
Sent all of the '32' bytes.
Received the byte/char '' from the connection.
Robot is stopped, going to send stop.
Sent all of the '32' bytes.
Received the byte/char '' from the connection.
Robot is stopped, going to send stop.
Sent all of the '32' bytes.
Received the byte/char '' from the connection.
Robot is stopped, going to send stop.
Sent all of the '32' bytes.
Received the byte/char '' from the connection.
Robot is stopped, going to send stop.
Sent all of the '32' bytes.
Received the byte/char '' from the connection.
Robot is stopped, going to send stop.
Sent all of the '32' bytes.
Received the byte/char '' from the connection.
Robot is stopped, going to send stop.
Sent all of the '32' bytes.
Received the byte/char '' from the connection.
Robot is stopped, going to send stop.
Sent all of the '32' bytes.
Received the byte/char '' from the connection.
Robot is stopped, going to send stop.
Sent all of the '32' bytes.
Received the byte/char '' from the connection.
Robot is stopped, going to send stop.
Sent all of the '32' bytes.
Received the byte/char '' from the connection.
Robot is stopped, going to send stop.
Sent all of the '32' bytes.
Received the byte/char '' from the connection.
Robot is stopped, going to send stop.
Sent all of the '32' bytes.
Received the byte/char '' from the connection.
Robot is stopped, going to send stop.
Sent all of the '32' bytes.
Received the byte/char '' from the connection.
Robot is stopped, going to send stop.
Sent all of the '32' bytes.
Received the byte/char '' from the connection.
Robot is stopped, going to send stop.
Sent all of the '32' bytes.
Received the byte/char '' from the connection.
Robot is stopped, going to send stop.
Sent all of the '32' bytes.
Received the byte/char '' from the connection.
Robot is stopped, going to send stop.
Sent all of the '32' bytes.
Received the byte/char '' from the connection.
Robot is stopped, going to send stop.
Sent all of the '32' bytes.
Received the byte/char '' from the connection.
Robot is stopped, going to send stop.
Sent all of the '32' bytes.
Received the byte/char '' from the connection.
Robot is stopped, going to send stop.
Sent all of the '32' bytes.
Received the byte/char '' from the connection.
Robot is stopped, going to send stop.
Sent all of the '32' bytes.
Received the byte/char '' from the connection.
Robot is stopped, going to send stop.
Sent all of the '32' bytes.
Received the byte/char '' from the connection.
Robot is stopped, going to send stop.
Sent all of the '32' bytes.
Received the byte/char '' from the connection.
Robot is stopped, going to send stop.
Sent all of the '32' bytes.
Received the byte/char '' from the connection.
Robot is stopped, going to send stop.
Sent all of the '32' bytes.
Received the byte/char '' from the connection.
Robot is stopped, going to send stop.
Sent all of the '32' bytes.
Received the byte/char '' from the connection.
Robot is stopped, going to send stop.
Sent all of the '32' bytes.
Received the byte/char '' from the connection.
Robot is stopped, going to send stop.
Sent all of the '32' bytes.
Received the byte/char '' from the connection.
Robot is stopped, going to send stop.
Sent all of the '32' bytes.
Received the byte/char '' from the connection.
Robot is stopped, going to send stop.
Sent all of the '32' bytes.
Received the byte/char '' from the connection.
Robot is stopped, going to send stop.
Sent all of the '32' bytes.
Received the byte/char '' from the connection.
Robot is stopped, going to send stop.
Sent all of the '32' bytes.
Received the byte/char '' from the connection.
Robot is stopped, going to send stop.
Sent all of the '32' bytes.
Received the byte/char '' from the connection.
Robot is stopped, going to send stop.
Sent all of the '32' bytes.
Received the byte/char '' from the connection.
Robot is stopped, going to send stop.
Sent all of the '32' bytes.
Received the byte/char '' from the connection.
Robot is stopped, going to send stop.
Sent all of the '32' bytes.
Received the byte/char '' from the connection.
Robot is stopped, going to send stop.
Sent all of the '32' bytes.
Received the byte/char '' from the connection.
Robot is stopped, going to send stop.
Sent allQ[6]{0, -1.57, 0, -1.57, 0, 0}
UR1.ToolFrame
Before: Vector3D(-0.000799058, -0.282, 0.99963)
After: Vector3D(0.147178, -0.11115, 0.753715)





rob - invkin!
Before: Vector3D(0.0922114, -0.0752313, 0.750998)
After: Vector3D(0.0922114, -0.0752313, 0.750998)





rob - invkin!
Before: Vector3D(-0.0499196, -0.12251, 0.74303)
After: Vector3D(-0.0499196, -0.12251, 0.74303)







--loaded

 of the '32' bytes.
Received the byte/char '' from the connection.
Robot is stopped, going to send stop.
Sent all of the '32' bytes.
Received the byte/char '' from the connection.
Robot is stopped, going to send stop.
Sent all of the '32' bytes.
Received the byte/char '' from the connection.
Robot is stopped, going to send stop.
Sent all of the '32' bytes.
Received the byte/char '' from the connection.
Robot is stopped, going to send stop.
Sent all of the '32' bytes.
Received the byte/char '' from the connection.
Robot is stopped, going to send stop.
Sent all of the '32' bytes.
Received the byte/char '' from the connection.
Robot is stopped, going to send stop.
Sent all of the '32' bytes.
Received the byte/char '' from the connection.
Robot is stopped, going to send stop.
Sent all of the '32' bytes.
Received the byte/char '' from the connection.
Robot is stopped, going to send stop.
Sent all of the '32' bytes.
Received the byte/char '' from the connection.
Robot is stopped, going to send stop.
Sent all of the '32' bytes.
Received the byte/char '' from the connection.
Robot is stopped, going to send stop.
Sent all of the '32' bytes.
Received the byte/char '' from the connection.
Robot is stopped, going to send stop.
Sent all of the '32' bytes.
Received the byte/char '' from the connection.
Robot is stopped, going to send stop.
Sent all of the '32' bytes.
Received the byte/char '' from the connection.
Robot is stopped, going to send stop.
Sent all of the '32' bytes.
Received the byte/char '' from the connection.
Robot is stopped, going to send stop.
Sent all of the '32' bytes.
Received the byte/char '' from the connection.
Robot is stopped, going to send stop.
Sent all of the '32' bytes.
Received the byte/char '' from the connection.
Robot is stopped, going to send stop.
Sent all of the '32' bytes.
Received the byte/char '' from the connection.
Robot is stopped, going to send stop.
Sent all of the '32' bytes.
Received the byte/char '' from the connection.
Robot is stopped, going to send stop.
Sent all of the '32' bytes.
Received the byte/char '' from the connection.
Robot is stopped, going to send stop.
Sent all of the '32' bytes.
Received the byte/char '' from the connection.
Robot is stopped, going to send stop.
Sent all of the '32' bytes.
Received the byte/char '' from the connection.
Robot is stopped, going to send stop.
Sent all of the '32' bytes.
Received the byte/char '' from the connection.
Robot is stopped, going to send stop.
Sent all of the '32' bytes.
Received the byte/char '' from the connection.
Robot is stopped, going to send stop.
Sent all of the '32' bytes.
Received the byte/char '' from the connection.
Robot is stopped, going to send stop.
Sent all of the '32' bytes.
Received the byte/char '' from the connection.
Robot is stopped, going to send stop.
Sent all of the '32' bytes.
Received the byte/char '' from the connection.
Robot is stopped, going to send stop.
Sent all of the '32' bytes.
Received the byte/char '' from the connection.
Robot is stopped, going to send stop.
Sent all of the '32' bytes.
Received the byte/char '' from the connection.
Robot is stopped, going to send stop.
Sent all of the '32' bytes.
Received the byte/char '' from the connection.
Robot is stopped, going to send stop.
Sent all of the '32' bytes.
Received the byte/char '' from the connection.
Robot is stopped, going to send stop.
Sent all of the '32' bytes.
Received the byte/char '' from the connection.
Robot is stopped, going to send stop.
Sent all of the '32' bytes.
Received the byte/char '' from the connection.
Robot is stopped, going to send stop.
Sent all of the '32' bytes.
Received the byte/char '' from the connection.
Robot is stopped, going to send stop.
Sent all of the '32' bytes.
Received the byte/char '' from the connection.
Robot is stopped, going to send stop.
Sent all of the '32' bytes.
Received the byte/char '' from the connection.
Robot is stopped, going to send stop.
Sent all of the '32' bytes.
Received the byte/char '' from the connection.
Robot is stopped, going to send stop.
Sent all of the '32' bytes.
Received the byte/char '' from the connection.
Robot is stopped, going to send stop.
Sent all of the '32' bytes.
Received the byte/char '' from the connection.
Robot is stopped, going to send stop.
Sent all of the '32' bytes.
Received the byte/char '' from the connection.
Robot is stopped, going to send stop.
Sent all of the '32' bytes.
Received the byte/char '' from the connection.
Robot is stopped, going to send stop.
Sent all of the '32' bytes.
Received the byte/char '' from the connection.
Robot is stopped, going to send stop.
Sent all of the '32' bytes.
Received the byte/char '' from the connection.
Robot is stopped, going to send stop.
Sent all of the '32' bytes.
Received the byte/char '' from the connection.
Robot is stopped, going to send stop.
Sent all of the '32' bytes.
Received the byte/char '' from the connection.
Robot is stopped, going to send stop.
Sent all of the '32' bytes.
Received the byte/char '' from the connection.
Robot is stopped, going to send stop.
Sent all of the '32' bytes.
Received the byte/char '' from the connection.
Robot is stopped, going to send stop.
Sent all of the '32' bytes.
Received the byte/char '' from the connection.
Robot is stopped, going to send stop.
Sent all of the '32' bytes.
Received the byte/char '' from the connection.
Robot is stopped, going to send stop.
Sent all of the '32' bytes.
Received the byte/char '' from the connection.
Robot is stopped, going to send stop.
Sent all of the '32' bytes.
Received the byte/char '' from the connection.
Robot is stopped, going to send stop.
Sent all of the '32' bytes.
Received the byte/char '' from the connection.
Robot is stopped, going to send stop.
Sent all of the '32' bytes.
Received the byte/char '' from the connection.
Robot is stopped, going to send stop.
Sent all of the '32' bytes.
Received the byte/char '' from the connection.
Robot is stopped, going to send stop.
Sent all of the '32' bytes.
Received the byte/char '' from the connection.
Robot is stopped, going to send stop.
Sent all of the '32' bytes.
Received the byte/char '' from the connection.
Robot is stopped, going to send stop.
Sent all of the '32' bytes.
Received the byte/char '' from the connection.
Robot is stopped, going to send stop.
Sent all of the '32' bytes.
Received the byte/char '' from the connection.
Robot is stopped, going to send stop.
Sent all of the '32' bytes.
Received the byte/char '' from the connection.
Robot is stopped, going to send stop.
Sent all of the '32' bytes.
Received the byte/char '' from the connection.
Robot is stopped, going to send stop.
Sent all of the '32' bytes.
Received the byte/char '' from the connection.
Robot is stopped, going to send stop.
Sent all of the '32' bytes.
Received the byte/char '' from the connection.
Robot is stopped, going to send stop.
Sent all of the '32' bytes.
Received the byte/char '' from the connection.
Robot is stopped, going to send stop.
Sent all of the '32' bytes.
Received the byte/char '' from the connection.
Robot is stopped, going to send stop.
Sent all of the '32' bytes.
Received the byte/char '' from the connection.
Robot is stopped, going to send stop.
Sent all of the '32' bytes.
Received the byte/char '' from the connection.
Robot is stopped, going to send stop.
Sent all of the '32' bytes.
Received the byte/char '' from the connection.
Robot is stopped, going to send stop.
Sent all of the '32' bytes.
Received the byte/char '' from the connection.
Robot is stopped, going to send stop.
Sent all of the '32' bytes.
Received the byte/char '' from the connection.
Robot is stopped, going to send stop.
Sent all of the '32' bytes.
Received the byte/char '' from the connection.
Robot is stopped, going to send stop.
Sent all of the '32' bytes.
Received the byte/char '' from the connection.
Robot is stopped, going to send stop.
Sent all of the '32' bytes.
Received the byte/char '' from the connection.
Robot is stopped, going to send stop.
Sent all of the '32' bytes.
Received the byte/char '' from the connection.
Robot is stopped, going to send stop.
Sent all of the '32' bytes.
Received the byte/char '' from the connection.
Robot is stopped, going to send stop.
Sent all of the '32' bytes.
Received the byte/char '' from the connection.
Robot is stopped, going to send stop.
Sent all of the '32' bytes.
Received the byte/char '' from the connection.
Robot is stopped, going to send stop.
Sent all of the '32' bytes.
Received the byte/char '' from the connection.
Robot is stopped, going to send stop.
Sent all of the '32' bytes.
Received the byte/char '' from the connection.
Robot is stopped, going to send stop.
Sent all of the '32' bytes.
Received the byte/char '' from the connection.
Robot is stopped, going to send stop.
Sent all of the '32' bytes.
Received the byte/char '' from the connection.
Robot is stopped, going to send stop.
Sent all of the '32' bytes.
Received the byte/char '' from the connection.
Robot is stopped, going to send stop.
Sent all of the '32' bytes.
Received the byte/char '' from the connection.
Robot is stopped, going to send stop.
Sent all of the '32' bytes.
Received the byte/char '' from the connection.
Robot is stopped, going to send stop.
Sent all of the '32' bytes.
Received the byte/char '' from the connection.
Robot is stopped, going to send stop.
Sent all of the '32' bytes.
Received the byte/char '' from the connection.
Robot is stopped, going to send stop.
Sent all of the '32' bytes.
Received the byte/char '' from the connection.
Robot is stopped, going to send stop.
Sent all of the '32' bytes.
Received the byte/char '' from the connection.
Robot is stopped, going to send stop.
Sent all of the '32' bytes.
Received the byte/char '' from the connection.
Robot is stopped, going to send stop.
Sent all of the '32' bytes.
Received the byte/char '' from the connection.
Robot is stopped, going to send stop.
Sent all of the '32' bytes.
Received the byte/char '' from the connection.
Robot is stopped, going to send stop.
Sent all of the '32' bytes.
Received the byte/char '' from the connection.
Robot is stopped, going to send stop.
Sent all of the '32' bytes.
Received the byte/char '' from the connection.
Robot is stopped, going to send stop.
Sent all of the '32' bytes.
Received the byte/char '' from the connection.
Robot is stopped, going to send stop.
Sent all of the '32' bytes.
Received the byte/char '' from the connection.
Robot is stopped, going to send stop.
Sent all of the '32' bytes.
Received the byte/char '' from the connection.
Robot is stopped, going to send stop.
Sent all of the '32' bytes.
Received the byte/char '' from the connection.
Robot is stopped, going to send stop.
Sent all of the '32' bytes.
Received the byte/char '' from the connection.
Robot is stopped, going to send stop.
Sent all of the '32' bytes.
Received the byte/char '' from the connection.
Robot is stopped, going to send stop.
Sent all of the '32' bytes.
Received the byte/char '' from the connection.
Robot is stopped, going to send stop.
Sent all of the '32' bytes.
Received the byte/char '' from the connection.
Robot is stopped, going to send stop.
Sent all of the '32' bytes.
Received the byte/char '' from the connection.
Robot is stopped, going to send stop.
Sent all of the '32' bytes.
Received the byte/char '' from the connection.
Robot is stopped, going to send stop.
Sent all of the '32' bytes.
Received the byte/char '' from the connection.
Robot is stopped, going to send stop.
Sent all of the '32' bytes.
Received the byte/char '' from the connection.
Robot is stopped, going to send stop.
Sent all of the '32' bytes.
Received the byte/char '' from the connection.
Robot is stopped, going to send stop.
Sent all of the '32' bytes.
Received the byte/char '' from the connection.
Robot is stopped, going to send stop.
Sent all of the '32' bytes.
Received the byte/char '' from the connection.
Robot is stopped, going to send stop.
Sent all of the '32' bytes.
Received the byte/char '' from the connection.
Robot is stopped, going to send stop.
Sent all of the '32' bytes.
Received the byte/char '' from the connection.
Robot is stopped, going to send stop.
Sent all of the '32' bytes.
Received the byte/char '' from the connection.
Robot is stopped, going to send stop.
Sent all of the '32' bytes.
Received the byte/char '' from the connection.
Robot is stopped, going to send stop.
Sent all of the '32' bytes.
Received the byte/char '' from the connection.
Robot is stopped, going to send stop.
Sent all of the '32' bytes.
Received the byte/char '' from the connection.
Robot is stopped, going to send stop.
Sent all of the '32' bytes.
Received the byte/char '' from the connection.
Robot is stopped, going to send stop.
Sent all of the '32' bytes.
Received the byte/char '' from the connection.
Robot is stopped, going to send stop.
Sent all of the '32' bytes.
Received the byte/char '' from the connection.
Robot is stopped, going to send stop.
Sent all of the '32' bytes.
Received the byte/char '' from the connection.
Robot is stopped, going to send stop.
Sent all of the '32' bytes.
Received the byte/char '' from the connection.
Robot is stopped, going to send stop.
Sent all of the '32' bytes.
Received the byte/char '' from the connection.
Robot is stopped, going to send stop.
Sent all of the '32' bytes.
Received the byte/char '' from the connection.
Robot is stopped, going to send stop.
Sent all of the '32' bytes.
Received the byte/char '' from the connection.
Robot is stopped, going to send stop.
Sent all of the '32' bytes.
Received the byte/char '' from the connection.
Robot is stopped, going to send stop.
Sent all of the '32' bytes.
Received the byte/char '' from the connection.
Robot is stopped, going to send stop.
Sent all of the '32' bytes.
Received the byte/char '' from the connection.
Robot is stopped, going to send stop.
Sent all of the '32' bytes.
Received the byte/char '' from the connection.
Robot is stopped, going to send stop.
Sent all of the '32' bytes.
Received the byte/char '' from the connection.
Robot is stopped, going to send stop.
Sent all of the '32' bytes.
Received the byte/char '' from the connection.
Robot is stopped, going to send stop.
Sent all of the '32' bytes.
Received the byte/char '' from the connection.
Robot is stopped, going to send stop.
Sent all of the '32' bytes.
Received the byte/char '' from the connection.
Robot is stopped, going to send stop.
Sent all of the '32' bytes.
Received the byte/char '' from the connection.
Robot is stopped, going to send stop.
Sent all of the '32' bytes.
Received the byte/char '' from the connection.
Robot is stopped, going to send stop.
Sent all of the '32' bytes.
Received the byte/char '' from the connection.
Robot is stopped, going to send stop.
Sent all of the '32' bytes.
Received the byte/char '' from the connection.
Robot is stopped, going to send stop.
Sent all of the '32' bytes.
Received the byte/char '' from the connection.
Robot is stopped, going to send stop.
Sent all of the '32' bytes.
Received the byte/char '' from the connection.
Robot is stopped, going to send stop.
Sent all of the '32' bytes.
Received the byte/char '' from the connection.
Robot is stopped, going to send stop.
Sent all of the '32' bytes.
Received the byte/char '' from the connection.
Robot is stopped, going to send stop.
Sent all of the '32' bytes.
Received the byte/char '' from the connection.
Robot is stopped, going to send stop.
Sent all of the '32' bytes.
Received the byte/char '' from the connection.
Robot is stopped, going to send stop.
Sent all of the '32' bytes.
Received the byte/char '' from the connection.
Robot is stopped, going to send stop.
Sent all of the '32' bytes.
Received the byte/char '' from the connection.
Robot is stopped, going to send stop.
Sent all of the '32' bytes.
Received the byte/char '' from the connection.
Robot is stopped, going to send stop.
Sent all of the '32' bytes.
Received the byte/char '' from the connection.
Robot is stopped, going to send stop.
Sent all of the '32' bytes.
Received the byte/char '' from the connection.
Robot is stopped, going to send stop.
Sent all of the '32' bytes.
Received the byte/char '' from the connection.
Robot is stopped, going to send stop.
Sent all of the '32' bytes.
Received the byte/char '' from the connection.
Robot is stopped, going to send stop.
Sent all of the '32' bytes.
Received the byte/char '' from the connection.
Robot is stopped, going to send stop.
Sent all of the '32' bytes.
Received the byte/char '' from the connection.
Robot is stopped, going to send stop.
Sent all of the '32' bytes.
Received the byte/char '' from the connection.
Robot is stopped, going to send stop.
Sent all of the '32' bytes.
Received the byte/char '' from the connection.
Robot is stopped, going to send stop.
Sent all of the '32' bytes.
Received the byte/char '' from the connection.
Robot is stopped, going to send stop.
Sent all of the '32' bytes.
Received the byte/char '' from the connection.
Robot is stopped, going to send stop.
Sent all of the '32' bytes.
Received the byte/char '' from the connection.
Robot is stopped, going to send stop.
Sent all of the '32' bytes.
Received the byte/char '' from the connection.
Robot is stopped, going to send stop.
Sent all of the '32' bytes.
Received the byte/char '' from the connection.
Robot is stopped, going to send stop.
Sent all of the '32' bytes.
Received the byte/char '' from the connection.
Robot is stopped, going to send stop.
Sent all of the '32' bytes.
Received the byte/char '' from the connection.
Robot is stopped, going to send stop.
Sent all of the '32' bytes.
Received the byte/char '' from the connection.
Robot is stopped, going to send stop.
Sent all of the '32' bytes.
Received the byte/char '' from the connection.
Robot is stopped, going to send stop.
Sent all of the '32' bytes.
Received the byte/char '' from the connection.
Robot is stopped, going to send stop.
Sent all of the '32' bytes.
Received the byte/char '' from the connection.
Robot is stopped, going to send stop.
Sent all of the '32' bytes.
Received the byte/char '' from the connection.
Robot is stopped, going to send stop.
Sent all of the '32' bytes.
Received the byte/char '' from the connection.
Robot is stopped, going to send stop.
Sent all of the '32' bytes.
Received the byte/char '' from the connection.
Robot is stopped, going to send stop.
Sent all of the '32' bytes.
Received the byte/char '' from the connection.
Robot is stopped, going to send stop.
Sent all of the '32' bytes.
Received the byte/char '' from the connection.
Robot is stopped, going to send stop.
Sent all of the '32' bytes.
Received the byte/char '' from the connection.
Robot is stopped, going to send stop.
Sent all of the '32' bytes.
Received the byte/char '' from the connection.
Robot is stopped, going to send stop.
Sent all of the '32' bytes.
Received the byte/char '' from the connection.
Robot is stopped, going to send stop.
Sent all of the '32' bytes.
Received the byte/char '' from the connection.
Robot is stopped, going to send stop.
Sent all of the '32' bytes.
Received the byte/char '' from the connection.
Robot is stopped, going to send stop.
Sent all of the '32' bytes.
Received the byte/char '' from the connection.
Robot is stopped, going to send stop.
Sent all of the '32' bytes.
Received the byte/char '' from the connection.
Robot is stopped, going to send stop.
Sent all of the '32' bytes.
Received the byte/char '' from the connection.
Robot is stopped, going to send stop.
Sent all of the '32' bytes.
Received the byte/char '' from the connection.
Robot is stopped, going to send stop.
Sent all of the '32' bytes.
Received the byte/char '' from the connection.
Robot is stopped, going to send stop.
Sent all of the '32' bytes.
Received the byte/char '' from the connection.
Robot is stopped, going to send stop.
Sent all of the '32' bytes.
Received the byte/char '' from the connection.
Robot is stopped, going to send stop.
Sent all of the '32' bytes.
Received the byte/char '' from the connection.
Robot is stopped, going to send stop.
Sent all of the '32' bytes.
Received the byte/char '' from the connection.
Robot is stopped, going to send stop.
Sent all of the '32' bytes.
Received the byte/char '' from the connection.
Robot is stopped, going to send stop.
Sent all of the '32' bytes.
Received the byte/char '' from the connection.
Robot is stopped, going to send stop.
Sent all of the '32' bytes.
Received the byte/char '' from the connection.
Robot is stopped, going to send stop.
Sent all of the '32' bytes.
Received the byte/char '' from the connection.
Robot is stopped, going to send stop.
Sent all of the '32' bytes.
Received the byte/char '' from the connection.
Robot is stopped, going to send stop.
Sent all of the '32' bytes.
Received the byte/char '' from the connection.
Robot is stopped, going to send stop.
Sent all of the '32' bytes.
Received the byte/char '' from the connection.
Robot is stopped, going to send stop.
Sent all of the '32' bytes.
Received the byte/char '' from the connection.
Robot is stopped, going to send stop.
Sent all of the '32' bytes.
Received the byte/char '' from the connection.
Robot is stopped, going to send stop.
Sent all of the '32' bytes.
Received the byte/char '' from the connection.
Robot is stopped, going to send stop.
Sent all of the '32' bytes.
Received the byte/char '' from the connection.
Robot is stopped, going to send stop.
Sent all of the '32' bytes.
Received the byte/char '' from the connection.
Robot is stopped, going to send stop.
Sent all of the '32' bytes.
Received the byte/char '' from the connection.
Robot is stopped, going to send stop.
Sent all of the '32' bytes.
Received the byte/char '' from the connection.
Robot is stopped, going to send stop.
Sent all of the '32' bytes.
Received the byte/char '' from the connection.
Robot is stopped, going to send stop.
Sent all of the '32' bytes.
Received the byte/char '' from the connection.
Robot is stopped, going to send stop.
Sent all of the '32' bytes.
Received the byte/char '' from the connection.
Robot is stopped, going to send stop.
Sent all of the '32' bytes.
Received the byte/char '' from the connection.
Robot is stopped, going to send stop.
Sent all of the '32' bytes.
Received the byte/char '' from the connection.
Robot is stopped, going to send stop.
Sent all of the '32' bytes.
Received the byte/char '' from the connection.
Robot is stopped, going to send stop.
Sent all of the '32' bytes.
Received the byte/char '' from the connection.
Robot is stopped, going to send stop.
Sent all of the '32' bytes.
Received the byte/char '' from the connection.
Robot is stopped, going to send stop.
Sent all of the '32' bytes.
Received the byte/char '' from the connection.
Robot is stopped, going to send stop.
Sent all of the '32' bytes.
Received the byte/char '' from the connection.
Robot is stopped, going to send stop.
Sent all of the '32' bytes.
Received the byte/char '' from the connection.
Robot is stopped, going to send stop.
Sent all of the '32' bytes.
Received the byte/char '' from the connection.
Robot is stopped, going to send stop.
Sent all of the '32' bytes.
Received the byte/char '' from the connection.
Robot is stopped, going to send stop.
Sent all of the '32' bytes.
Received the byte/char '' from the connection.
Robot is stopped, going to send stop.
Sent all of the '32' bytes.
Received the byte/char '' from the connection.
Robot is stopped, going to send stop.
Sent all of the '32' bytes.
Received the byte/char '' from the connection.
Robot is stopped, going to send stop.
Sent all of the '32' bytes.
Received the byte/char '' from the connection.
Robot is stopped, going to send stop.
Sent all of the '32' bytes.
Received the byte/char '' from the connection.
Robot is stopped, going to send stop.
Sent all of the '32' bytes.
Received the byte/char '' from the connection.
Robot is stopped, going to send stop.
Sent all of the '32' bytes.
Received the byte/char '' from the connection.
Robot is stopped, going to send stop.
Sent all of the '32' bytes.
Received the byte/char '' from the connection.
Robot is stopped, going to send stop.
Sent all of the '32' bytes.
Received the byte/char '' from the connection.
Robot is stopped, going to send stop.
Sent all of the '32' bytes.
Received the byte/char '' from the connection.
Robot is stopped, going to send stop.
Sent all of the '32' bytes.
Received the byte/char '' from the connection.
Robot is stopped, going to send stop.
Sent all of the '32' bytes.
Received the byte/char '' from the connection.
Robot is stopped, going to send stop.
Sent all of the '32' bytes.
Received the byte/char '' from the connection.
Robot is stopped, going to send stop.
Sent all of the '32' bytes.
Received the byte/char '' from the connection.
Robot is stopped, going to send stop.
Sent all of the '32' bytes.
Received the byte/char '' from the connection.
Robot is stopped, going to send stop.
Sent all of the '32' bytes.
Received the byte/char '' from the connection.
Robot is stopped, going to send stop.
Sent all of the '32' bytes.
Received the byte/char '' from the connection.
Robot is stopped, going to send stop.
Sent all of the '32' bytes.
Received the byte/char '' from the connection.
Robot is stopped, going to send stop.
Sent all of the '32' bytes.
Received the byte/char '' from the connection.
Robot is stopped, going to send stop.
Sent all of the '32' bytes.
Received the byte/char '' from the connection.
Robot is stopped, going to send stop.
Sent all of the '32' bytes.
Received the byte/char '' from the connection.
Robot is stopped, going to send stop.
Sent all of the '32' bytes.
Received the byte/char '' from the connection.
Robot is stopped, going to send stop.
Sent all of the '32' bytes.
Received the byte/char '' from the connection.
Robot is stopped, going to send stop.
Sent all of the '32' bytes.
Received the byte/char '' from the connection.
Robot is stopped, going to send stop.
Sent all of the '32' bytes.
Received the byte/char '' from the connection.
Robot is stopped, going to send stop.
Sent all of the '32' bytes.
Received the byte/char '' from the connection.
Robot is stopped, going to send stop.
Sent all of the '32' bytes.
Received the byte/char '' from the connection.
Robot is stopped, going to send stop.
Sent all of the '32' bytes.
Received the byte/char '' from the connection.
Robot is stopped, going to send stop.
Sent all of the '32' bytes.
Received the byte/char '' from the connection.
Robot is stopped, going to send stop.
Sent all of the '32' bytes.
Received the byte/char '' from the connection.
Robot is stopped, going to send stop.
Sent all of the '32' bytes.
Received the byte/char '' from the connection.
Robot is stopped, going to send stop.
Sent all of the '32' bytes.
Received the byte/char '' from the connection.
Robot is stopped, going to send stop.
Sent all of the '32' bytes.
... logging to /home/keerthikan/.ros/log/5c0c426e-180a-11e6-bf02-0019b919fec2/roslaunch-keerthikan-ThinkPad-T420s-9827.log
Checking log directory for disk usage. This may take awhile.
Press Ctrl-C to interrupt
Done checking log file disk usage. Usage is <1GB.
]2;/home/keerthikan/ca/src/caros/hwcomponents/caros_universalrobot/test/simple_demo_using_move_ptp.test
[1mstarted roslaunch server http://192.168.100.2:35502/[0m

SUMMARY
========

PARAMETERS
 * /caros/workcell: /home/keerthikan/...
 * /rosdistro: indigo
 * /rosversion: 1.11.19
 * /simple_caros_universalrobot_demo_using_move_ptp/callback_ip: 192.168.100.2
 * /simple_caros_universalrobot_demo_using_move_ptp/callback_port: 33333
 * /simple_caros_universalrobot_demo_using_move_ptp/device_ip: 192.168.100.8
 * /simple_caros_universalrobot_demo_using_move_ptp/device_name: UR1
 * /ur_simple_demo_node/callback_ip: 192.168.100.2
 * /ur_simple_demo_node/callback_port: 33333
 * /ur_simple_demo_node/device_ip: 192.168.100.8
 * /ur_simple_demo_node/device_name: UR1

NODES
  /
    simple_caros_universalrobot_demo_using_move_ptp (caros_universalrobot/simple_caros_universalrobot_demo_using_move_ptp)
    ur_simple_demo_node (caros_universalrobot/caros_universalrobot_node)

[1mROS_MASTER_URI=http://192.168.100.52:11311[0m
]2;/home/keerthikan/ca/src/caros/hwcomponents/caros_universalrobot/test/simple_demo_using_move_ptp.test http://192.168.100.52:11311
core service [/rosout] found
[1mprocess[ur_simple_demo_node-1]: started with pid [9836][0m
[1mprocess[simple_caros_universalrobot_demo_using_move_ptp-2]: started with pid [9837][0m
[simple_caros_universalrobot_demo_using_move_ptp-2] killing on exit
[ur_simple_demo_node-1] killing on exit
shutting down processing monitor...
... shutting down processing monitor complete
[1mdone[0m
Spawning communication thread
Using default UR script/file
Sending script to the robot
Send Command:
def rwhw_urscript():
	textmsg("PROGRAM STARTED")
    global qtarget = [ 0,0,0,0,0,0]
    global posetarget = p[ 0,0,0,0,0,0]
    global dqtarget = [ 0,0,0,0,0,0 ]
    global speed = 0.75
    global thrd  = -1
    global motionFinished = 0
    global isServoing = 0
    global isStopped = 1
    global receive_buffer = [8, 0, 0, 0, 0, 0, 0, 0, 0]
    global receive_buffer18 = [18, 0, 0, 0, 0, 0, 0, 0, 0, 0, 0, 0, 0, 0, 0, 0, 0, 0, 0]
    global FLOAT_SCALE = 0.0001  
    global force_selection = [ 0,0,0,0,0,0]
    global wrench = [ 0,0,0,0,0,0]
    global force_limits = [ 0,0,0,0,0,0]
    global force_frame = p[0,0,0,0,0,0]
    global mass = 0.0
    global center_of_gravity = [0, 0, 0]
	
    def stopRobot():
        enter_critical	  
        if thrd != -1:
            kill thrd
            thrd = -1
        end
        exit_critical
        textmsg("Stop Robot")
        stopj(10)
        isServoing = 0
        isStopped = 1
    end


    #Thread for running the movej command
    thread moveJthread():
        textmsg("Calls movej")
        textmsg(qtarget)
        textmsg(speed)
        movej(qtarget)
        textmsg("MoveJ called")
        #We reset our thread handle to -1 to indicate that the motion is finish.
        #This is done in a critical section to avoid race conditions
        enter_critical
        thrd = -1
        motionFinished = 1
        exit_critical
        textmsg("MoveJ done")
    end

    #Thread for running the movel command
	thread moveLthread():
        textmsg("Calls moveT")
        movel(posetarget)

        #We reset our thread handle to -1 to indicate that the motion is finish.
        #This is done in a critical section to avoid race conditions
        enter_critical	
        thrd = -1
        motionFinished = 1
        exit_critical
    end


    #Thread for running the servoj comand. The thread constantly updates the target 
    #of the servoj command to the most recently given target.
    thread servoQthread():
        textmsg("Start ServoQ Thread")
        while 1 == 1:
            enter_critical
            q = qtarget
            exit_critical
            #textmsg("Calls ServoJ")
            servoj(q, 3, 0.75, 0.008)            
        end
        enter_critical
        thrd = -1
        motionFinished = 1
        exit_critical
    end



    def moveQ():
        textmsg("MoveQ")
        cnt = 0           
        enter_critical  
        motionFinished = 0      
        while cnt < 6:
            qtarget[cnt] = receive_buffer[cnt+2]*FLOAT_SCALE
            cnt = cnt + 1
        end
        exit_critical
        textmsg(qtarget)
        textmsg("Get Speed")
        speed = receive_buffer[7]*FLOAT_SCALE
      	textmsg("speed ")
        textmsg(speed)
        enter_critical
        if thrd != -1:			
            textmsg("Kills old thread")
            kill thrd
            isServoing = 0
            textmsg("Continues after kill")
            thrd = -1
        end
        exit_critical
        
        enter_critical
        #We only wish to start a new thread if our previous motion is finished
        if thrd == -1:
            thrd = run moveJthread()
        end
        exit_critical
    end

    def moveT():
		textmsg("MOVET")
        #Reads in x,y,z,ax,ay,az,speed
        motionFinished = 0
		cnt = 0
		enter_critical
        while cnt < 6:
            posetarget[cnt] = receive_buffer[cnt+2]*FLOAT_SCALE
            cnt = cnt + 1
        end
		exit_critical
		
        textmsg(posetarget)
        
        speed = receive_buffer[7]*FLOAT_SCALE
    
		enter_critical		
        if thrd != -1:			
            kill thrd
            isServoing = 0
            thrd = -1
        end
        exit_critical
        
        enter_critical
        #We only wish to start a new thread if our previous motion is finished
        if thrd == -1:
            thrd = run moveLthread()
        end
        exit_critical
    end

    def servoQ():
        cnt = 0           
        enter_critical        
        while cnt < 6:
            qtarget[cnt] = receive_buffer[cnt+2]*FLOAT_SCALE
            cnt = cnt + 1
        end
        exit_critical

  		#textmsg(isServoing)

        enter_critical
        if isServoing == 0:
            textmsg(qtarget)
            isServoing = 1 
            if thrd == -1:
                textmsg("Start ServoQThread")
                thrd = run servoQthread()
            end
        end
        exit_critical
    end

    def force_mode_start():
        cnt = 0           
        #enter_critical        
        while cnt < 6:
            force_frame[cnt] = receive_buffer[cnt+2]*FLOAT_SCALE
            cnt = cnt + 1
        end

		receive_buffer18 = socket_read_binary_integer(18)

        cnt = 0           
        while cnt < 6:
        	force_selection[cnt] = receive_buffer18[cnt+1]*FLOAT_SCALE
            wrench[cnt] = receive_buffer18[cnt+1+6]*FLOAT_SCALE
            force_limits[cnt] = receive_buffer18[cnt+1+12]*FLOAT_SCALE
            cnt = cnt + 1
        end

        textmsg("Force Frame: ")
        textmsg(force_frame)
        textmsg("Force Selection: ")
        textmsg(force_selection)
        textmsg("Wrench:")
        textmsg(wrench)
        textmsg("Force Limits:")
        textmsg(force_limits)
        force_mode(force_frame, force_selection, wrench, 2, force_limits)

        #exit_critical
    end

	
    def force_mode_update():
        cnt = 0           
        #enter_critical        
        while cnt < 6:
            wrench[cnt] = receive_buffer[cnt+2]*FLOAT_SCALE
            cnt = cnt + 1
        end

        force_mode(force_frame, force_selection, wrench, 2, force_limits)

        #exit_critical
    end
	
	
	def force_mode_end():
        end_force_mode()
	end
	
	
    def teach_mode_start():
    end
	
    def teach_mode_end():
    end

	def set_io():
		textmsg("Step OI")
		id = receive_buffer[2]
		onoff = receive_buffer[3]
		if onoff == 1:
			set_digital_out(id, True)
		else:
			set_digital_out(id, False)
		end	
	end
	
	
	def set_tcp_payload():
		textmsg("Setting payload")
    	cnt = 0
		mass = receive_buffer[cnt+2]*FLOAT_SCALE
		cnt = cnt + 1
		while cnt < 4:
			center_of_gravity[cnt - 1] = receive_buffer[cnt+2]*FLOAT_SCALE
			cnt = cnt + 1
		end
	
		textmsg("New payload: ")
		textmsg(mass)
		textmsg("Center of gravity: ")
		textmsg(center_of_gravity)
		
		set_payload(mass, center_of_gravity) 
    end

	
#
# The main loop is running below
#
	
    #Setup the host name
    host = "192.168.100.2"
    port = 33333
	textmsg("Host")
	textmsg(host)
	textmsg("Port")
	textmsg(port)
    opened = socket_open(host, port)
    textmsg("Socket Status")
    textmsg(opened)

    while opened == False:
        opened = socket_open(host, port)
    end 

    textmsg("Socket opened !!")
    errcnt = 0
	socket_send_byte(0)
    while errcnt < 1:       
		receive_buffer = socket_read_binary_integer(8)

        if motionFinished == 1:
            #textmsg("Sends finished")
            socket_send_byte(0)
        else:
            socket_send_byte(1)
        end

        #textmsg(receive_buffer)
        if receive_buffer[0] != 8:
			textmsg("Did not receive 8 integers as expected")
            stopRobot()
            errcnt = errcnt + 1
        elif receive_buffer[1] == 0: #0: Stop Robot
        	if isStopped == 0:
            	stopRobot()
            end            
        elif receive_buffer[1] == 1: #1: Move to Q
        	isStopped = 0
            moveQ()
        elif receive_buffer[1] == 2: #2: Move to T
			isStopped = 0
            moveT()
        elif receive_buffer[1] == 3: #3: Servo to T
			textmsg("servo")
			isStopped = 0
            servoQ()
        elif receive_buffer[1] == 4: #4: Start Force Mode Base
        	textmsg("Force Mode Start")
            isStopped = 0
            force_mode_start()
        elif receive_buffer[1] == 5: #5: Force Mode Update
            isStopped = 0
            force_mode_update()
        elif receive_buffer[1] == 6: #6: End Force Mode
            force_mode_end()
        elif receive_buffer[1] == 7: #7: Teach mode start
            teach_mode_start()
        elif receive_buffer[1] == 8: #8: Teach mode end
            teach_mode_end()
		elif receive_buffer[1] == 9: #9: Set IO
			set_io()
		elif receive_buffer[1] == 10: #10: Set Payload
			set_tcp_payload()	
        elif receive_buffer[1] == 9999: #1: Do nothing
        	isStopped = 0
            #Right motion already taken
        end


		
        #if motionFinished == 1:
        #textmsg("Sends finished")
        #socket_set_var("FIN", 1)
        #motionFinished = 0
        #end
    end #end for While True:
    textmsg("Program Finished")
end
run program

Bytes to be transfered '8643' and bytes actually transfered '8643'
Successfully sent the script to the robot
Callback IP = 192.168.100.2
Callback Port = 33333
Ready to accept incoming connections on port '33333'
Incoming connection accepted
Received the byte/char ' ' from the connection.
Robot is stopped, going to send stop.
Sent all of the '32' bytes.
Received the byte/char '' from the connection.
Robot is stopped, going to send stop.
Sent all of the '32' bytes.
Received the byte/char '' from the connection.
Robot is stopped, going to send stop.
Sent all of the '32' bytes.
Received the byte/char '' from the connection.
Robot is stopped, going to send stop.
Sent all of the '32' bytes.
Received the byte/char '' from the connection.
Robot is stopped, going to send stop.
Sent all of the '32' bytes.
Received the byte/char '' from the connection.
Robot is stopped, going to send stop.
Sent all of the '32' bytes.
Received the byte/char '' from the connection.
Robot is stopped, going to send stop.
Sent all of the '32' bytes.
Received the byte/char '' from the connection.
Robot is stopped, going to send stop.
Sent all of the '32' bytes.
Received the byte/char '' from the connection.
Robot is stopped, going to send stop.
Sent all of the '32' bytes.
Received the byte/char '' from the connection.
Robot is stopped, going to send stop.
Sent all of the '32' bytes.
Received the byte/char '' from the connection.
Robot is stopped, going to send stop.
Sent all of the '32' bytes.
Received the byte/char '' from the connection.
Robot is stopped, going to send stop.
Sent all of the '32' bytes.
Received the byte/char '' from the connection.
Robot is stopped, going to send stop.
Sent all of the '32' bytes.
Received the byte/char '' from the connection.
Robot is stopped, going to send stop.
Sent all of the '32' bytes.
Received the byte/char '' from the connection.
Robot is stopped, going to send stop.
Sent all of the '32' bytes.
Received the byte/char '' from the connection.
Robot is stopped, going to send stop.
Sent all of the '32' bytes.
Received the byte/char '' from the connection.
Robot is stopped, going to send stop.
Sent all of the '32' bytes.
Received the byte/char '' from the connection.
Robot is stopped, going to send stop.
Sent all of the '32' bytes.
Received the byte/char '' from the connection.
Robot is stopped, going to send stop.
Sent all of the '32' bytes.
Received the byte/char '' from the connection.
Robot is stopped, going to send stop.
Sent all of the '32' bytes.
Received the byte/char '' from the connection.
Robot is stopped, going to send stop.
Sent all of the '32' bytes.
Received the byte/char '' from the connection.
Robot is stopped, going to send stop.
Sent all of the '32' bytes.
Received the byte/char '' from the connection.
Robot is stopped, going to send stop.
Sent all of the '32' bytes.
Received the byte/char '' from the connection.
Robot is stopped, going to send stop.
Sent all of the '32' bytes.
Received the byte/char '' from the connection.
Robot is stopped, going to send stop.
Sent all of the '32' bytes.
Received the byte/char '' from the connection.
Robot is stopped, going to send stop.
Sent all of the '32' bytes.
Received the byte/char '' from the connection.
Robot is stopped, going to send stop.
Sent all of the '32' bytes.
Received the byte/char '' from the connection.
Robot is stopped, going to send stop.
Sent all of the '32' bytes.
Received the byte/char '' from the connection.
Robot is stopped, going to send stop.
Sent all of the '32' bytes.
Received the byte/char '' from the connection.
Robot is stopped, going to send stop.
Sent all of the '32' bytes.
Received the byte/char '' from the connection.
Robot is stopped, going to send stop.
Sent all of the '32' bytes.
Received the byte/char '' from the connection.
Robot is stopped, going to send stop.
Sent all of the '32' bytes.
Received the byte/char '' from the connection.
Robot is stopped, going to send stop.
Sent all of the '32' bytes.
Received the byte/char '' from the connection.
Robot is stopped, going to send stop.
Sent all of the '32' bytes.
Received the byte/char '' from the connection.
Robot is stopped, going to send stop.
Sent all of the '32' bytes.
Received the byte/char '' from the connection.
Robot is stopped, going to send stop.
Sent all of the '32' bytes.
Received the byte/char '' from the connection.
Robot is stopped, going to send stop.
Sent all of the '32' bytes.
Received the byte/char '' from the connection.
Robot is stopped, going to send stop.
Sent all of the '32' bytes.
Received the byte/char '' from the connection.
Robot is stopped, going to send stop.
Sent all of the '32' bytes.
Received the byte/char '' from the connection.
Robot is stopped, going to send stop.
Sent all of the '32' bytes.
Received the byte/char '' from the connection.
Robot is stopped, going to send stop.
Sent all of the '32' bytes.
Received the byte/char '' from the connection.
Robot is stopped, going to send stop.
Sent all of the '32' bytes.
Received the byte/char '' from the connection.
Robot is stopped, going to send stop.
Sent all of the '32' bytes.
Received the byte/char '' from the connection.
Robot is stopped, going to send stop.
Sent all of the '32' bytes.
Received the byte/char '' from the connection.
Robot is stopped, going to send stop.
Sent all of the '32' bytes.
Received the byte/char '' from the connection.
Robot is stopped, going to send stop.
Sent all of the '32' bytes.
Received the byte/char '' from the connection.
Robot is stopped, going to send stop.
Sent all of the '32' bytes.
Received the byte/char '' from the connection.
Robot is stopped, going to send stop.
Sent all of the '32' bytes.
Received the byte/char '' from the connection.
Robot is stopped, going to send stop.
Sent all of the '32' bytes.
Received the byte/char '' from the connection.
Robot is stopped, going to send stop.
Sent all of the '32' bytes.
Received the byte/char '' from the connection.
Robot is stopped, going to send stop.
Sent all of the '32' bytes.
Received the byte/char '' from the connection.
Robot is stopped, going to send stop.
Sent all of the '32' bytes.
Received the byte/char '' from the connection.
Robot is stopped, going to send stop.
Sent all of the '32' bytes.
Received the byte/char '' from the connection.
Robot is stopped, going to send stop.
Sent all of the '32' bytes.
Received the byte/char '' from the connection.
Robot is stopped, going to send stop.
Sent all of the '32' bytes.
Received the byte/char '' from the connection.
Robot is stopped, going to send stop.
Sent all of the '32' bytes.
Received the byte/char '' from the connection.
Robot is stopped, going to send stop.
Sent all of the '32' bytes.
Received the byte/char '' from the connection.
Robot is stopped, going to send stop.
Sent all of the '32' bytes.
Received the byte/char '' from the connection.
Robot is stopped, going to send stop.
Sent all of the '32' bytes.
Received the byte/char '' from the connection.
Robot is stopped, going to send stop.
Sent all of the '32' bytes.
Received the byte/char '' from the connection.
Robot is stopped, going to send stop.
Sent all of the '32' bytes.
Received the byte/char '' from the connection.
Robot is stopped, going to send stop.
Sent all of the '32' bytes.
Received the byte/char '' from the connection.
Robot is stopped, going to send stop.
Sent all of the '32' bytes.
Received the byte/char '' from the connection.
Robot is stopped, going to send stop.
Sent all of the '32' bytes.
Received the byte/char '' from the connection.
Robot is stopped, going to send stop.
Sent all of the '32' bytes.
Received the byte/char '' from the connection.
Robot is stopped, going to send stop.
Sent all of the '32' bytes.
Received the byte/char '' from the connection.
Robot is stopped, going to send stop.
Sent all of the '32' bytes.
Received the byte/char '' from the connection.
Robot is stopped, going to send stop.
Sent all of the '32' bytes.
Received the byte/char '' from the connection.
Robot is stopped, going to send stop.
Sent all of the '32' bytes.
Received the byte/char '' from the connection.
Robot is stopped, going to send stop.
Sent all of the '32' bytes.
Received the byte/char '' from the connection.
Robot is stopped, going to send stop.
Sent all of the '32' bytes.
Received the byte/char '' from the connection.
Robot is stopped, going to send stop.
Sent all of the '32' bytes.
Received the byte/char '' from the connection.
Robot is stopped, going to send stop.
Sent all of the '32' bytes.
Received the byte/char '' from the connection.
Robot is stopped, going to send stop.
Sent all of the '32' bytes.
Received the byte/char '' from the connection.
Robot is stopped, going to send stop.
Sent all of the '32' bytes.
Received the byte/char '' from the connection.
Robot is stopped, going to send stop.
Sent all of the '32' bytes.
Received the byte/char '' from the connection.
Robot is stopped, going to send stop.
Sent all of the '32' bytes.
Received the byte/char '' from the connection.
Robot is stopped, going to send stop.
Sent all of the '32' bytes.
Received the byte/char '' from the connection.
Robot is stopped, going to send stop.
Sent all of the '32' bytes.
Received the byte/char '' from the connection.
Robot is stopped, going to send stop.
Sent all of the '32' bytes.
Received the byte/char '' from the connection.
Robot is stopped, going to send stop.
Sent all of the '32' bytes.
Received the byte/char '' from the connection.
Robot is stopped, going to send stop.
Sent all of the '32' bytes.
Received the byte/char '' from the connection.
Robot is stopped, going to send stop.
Sent all of the '32' bytes.
Received the byte/char '' from the connection.
Robot is stopped, going to send stop.
Sent all of the '32' bytes.
Received the byte/char '' from the connection.
Robot is stopped, going to send stop.
Sent all of the '32' bytes.
Received the byte/char '' from the connection.
Robot is stopped, going to send stop.
Sent all of the '32' bytes.
Received the byte/char '' from the connection.
Robot is stopped, going to send stop.
Sent all of the '32' bytes.
Received the byte/char '' from the connection.
Robot is stopped, going to send stop.
Sent all of the '32' bytes.
Received the byte/char '' from the connection.
Robot is stopped, going to send stop.
Sent all of the '32' bytes.
Received the byte/char '' from the connection.
Robot is stopped, going to send stop.
Sent all of the '32' bytes.
Received the byte/char '' from the connection.
Robot is stopped, going to send stop.
Sent all of the '32' bytes.
Received the byte/char '' from the connection.
Robot is stopped, going to send stop.
Sent all of the '32' bytes.
Received the byte/char '' from the connection.
Robot is stopped, going to send stop.
Sent all of the '32' bytes.
Received the byte/char '' from the connection.
Robot is stopped, going to send stop.
Sent all of the '32' bytes.
Received the byte/char '' from the connection.
Robot is stopped, going to send stop.
Sent all of the '32' bytes.
Received the byte/char '' from the connection.
Robot is stopped, going to send stop.
Sent all of the '32' bytes.
Received the byte/char '' from the connection.
Robot is stopped, going to send stop.
Sent all of the '32' bytes.
Received the byte/char '' from the connection.
Robot is stopped, going to send stop.
Sent all of the '32' bytes.
Received the byte/char '' from the connection.
Robot is stopped, going to send stop.
Sent all of the '32' bytes.
Received the byte/char '' from the connection.
Robot is stopped, going to send stop.
Sent all of the '32' bytes.
Received the byte/char '' from the connection.
Robot is stopped, going to send stop.
Sent all of the '32' bytes.
Received the byte/char '' from the connection.
Robot is stopped, going to send stop.
Sent all of the '32' bytes.
Received the byte/char '' from the connection.
Robot is stopped, going to send stop.
Sent all of the '32' bytes.
Received the byte/char '' from the connection.
Robot is stopped, going to send stop.
Sent all of the '32' bytes.
Received the byte/char '' from the connection.
Robot is stopped, going to send stop.
Sent all of the '32' bytes.
Received the byte/char '' from the connection.
Robot is stopped, going to send stop.
Sent all of the '32' bytes.
Received the byte/char '' from the connection.
Robot is stopped, going to send stop.
Sent all of the '32' bytes.
Received the byte/char '' from the connection.
Robot is stopped, going to send stop.
Sent all of the '32' bytes.
Received the byte/char '' from the connection.
Robot is stopped, going to send stop.
Sent all of the '32' bytes.
Received the byte/char '' from the connection.
Robot is stopped, going to send stop.
Sent all of the '32' bytes.
Received the byte/char '' from the connection.
Robot is stopped, going to send stop.
Sent all of the '32' bytes.
Received the byte/char '' from the connection.
Robot is stopped, going to send stop.
Sent all of the '32' bytes.
Received the byte/char '' from the connection.
Robot is stopped, going to send stop.
Sent all of the '32' bytes.
Received the byte/char '' from the connection.
Robot is stopped, going to send stop.
Sent all of the '32' bytes.
Received the byte/char '' from the connection.
Robot is stopped, going to send stop.
Sent all of the '32' bytes.
Received the byte/char '' from the connection.
Robot is stopped, going to send stop.
Sent all of the '32' bytes.
Received the byte/char '' from the connection.
Robot is stopped, going to send stop.
Sent all of the '32' bytes.
Received the byte/char '' from the connection.
Robot is stopped, going to send stop.
Sent all of the '32' bytes.
Received the byte/char '' from the connection.
Robot is stopped, going to send stop.
Sent all of the '32' bytes.
Received the byte/char '' from the connection.
Robot is stopped, going to send stop.
Sent all of the '32' bytes.
Received the byte/char '' from the connection.
Robot is stopped, going to send stop.
Sent all of the '32' bytes.
Received the byte/char '' from the connection.
Robot is stopped, going to send stop.
Sent all of the '32' bytes.
Received the byte/char '' from the connection.
Robot is stopped, going to send stop.
Sent all of the '32' bytes.
Received the byte/char '' from the connection.
Robot is stopped, going to send stop.
Sent all of the '32' bytes.
Received the byte/char '' from the connection.
Robot is stopped, going to send stop.
Sent all of the '32' bytes.
Received the byte/char '' from the connection.
Robot is stopped, going to send stop.
Sent all of the '32' bytes.
Received the byte/char '' from the connection.
Robot is stopped, going to send stop.
Sent all of the '32' bytes.
Received the byte/char '' from the connection.
Robot is stopped, going to send stop.
Sent all of the '32' bytes.
Received the byte/char '' from the connection.
Robot is stopped, going to send stop.
Sent all of the '32' bytes.
Received the byte/char '' from the connection.
Robot is stopped, going to send stop.
Sent all of the '32' bytes.
Received the byte/char '' from the connection.
Robot is stopped, going to send stop.
Sent all of the '32' bytes.
Received the byte/char '' from the connection.
Robot is stopped, going to send stop.
Sent all of the '32' bytes.
Received the byte/char '' from the connection.
Robot is stopped, going to send stop.
Sent all of the '32' bytes.
Received the byte/char '' from the connection.
Robot is stopped, going to send stop.
Sent all of the '32' bytes.
Received the byte/char '' from the connection.
Robot is stopped, going to send stop.
Sent all of the '32' bytes.
Received the byte/char '' from the connection.
Robot is stopped, going to send stop.
Sent all of the '32' bytes.
Received the byte/char '' from the connection.
Robot is stopped, going to send stop.
Q[6]{0, -1.57, 0, -1.57, 0, 0}
UR1.ToolFrame
Before: Vector3D(-0.000799058, -0.282, 0.99963)
After: Vector3D(0.147178, -0.11115, 0.753715)





rob - invkin!
Before: Vector3D(0.0922114, -0.0752313, 0.750998)
After: Vector3D(0.0922114, -0.0752313, 0.750998)





Sent all of the '32' bytes.
Received the byte/char '' from the connection.
Robot is stopped, going to send stop.
Sent all of the '32' bytes.
Received the byte/char '' from the connection.
Robot is stopped, going to send stop.
Sent all of the '32' bytes.
Received the byte/char '' from the connection.
Robot is stopped, going to send stop.
Sent all of the '32' bytes.
Received the byte/char '' from the connection.
Robot is stopped, going to send stop.
Sent all of the '32' bytes.
Received the byte/char '' from the connection.
Robot is stopped, going to send stop.
Sent all of the '32' bytes.
Received the byte/char '' from the connection.
Robot is stopped, going to send stop.
Sent all of the '32' bytes.
Received the byte/char '' from the connection.
Robot is stopped, going to send stop.
Sent all of the '32' bytes.
Received the byte/char '' from the connection.
Robot is stopped, going to send stop.
Sent all of the '32' bytes.
Received the byte/char '' from the connection.
Robot is stopped, going to send stop.
Sent all of the '32' bytes.
Received the byte/char '' from the connection.
Robot is stopped, going to send stop.
Sent all of the '32' bytes.
Received the byte/char '' from the connection.
Robot is stopped, going to send stop.
Sent all of the '32' bytes.
Received the byte/char '' from the connection.
Robot is stopped, going to send stop.
Sent all of the '32' bytes.
Received the byte/char '' from the connection.
Robot is stopped, going to send stop.
Sent all of the '32' bytes.
Received the byte/char '' from the connection.
Robot is stopped, going to send stop.
Sent all of the '32' bytes.
Received the byte/char '' from the connection.
Robot is stopped, going to send stop.
Sent all of the '32' bytes.
Received the byte/char '' from the connection.
Robot is stopped, going to send stop.
Sent all of the '32' bytes.
Received the byte/char '' from the connection.
Robot is stopped, going to send stop.
Sent all of the '32' bytes.
Received the byte/char '' from the connection.
Robot is stopped, going to send stop.
Sent all of the '32' bytes.
Received the byte/char '' from the connection.
Robot is stopped, going to send stop.
Sent all of the '32' bytes.
Received the byte/char '' from the connection.
Robot is stopped, going to send stop.
Sent all of the '32' bytes.
Received the byte/char '' from the connection.
Robot is stopped, going to send stop.
Sent all of the '32' bytes.
Received the byte/char '' from the connection.
Robot is stopped, going to send stop.
Sent all of the '32' bytes.
Received the byte/char '' from the connection.
Robot is stopped, going to send stop.
Sent all of the '32' bytes.
Received the byte/char '' from the connection.
Robot is stopped, going to send stop.
Sent all of the '32' bytes.
Received the byte/char '' from the connection.
Robot is stopped, going to send stop.
Sent all of the '32' bytes.
Received the byte/char '' from the connection.
Robot is stopped, going to send stop.
Sent all of the '32' bytes.
Received the byte/char '' from the connection.
Robot is stopped, going to send stop.
Sent all of the '32' bytes.
Received the byte/char '' from the connection.
Robot is stopped, going to send stop.
Sent all of the '32' bytes.
Received the byte/char '' from the connection.
Robot is stopped, going to send stop.
Sent all of the '32' bytes.
Received the byte/char '' from the connection.
Robot is stopped, going to send stop.
Sent all of the '32' bytes.
Received the byte/char '' from the connection.
Robot is stopped, going to send stop.
Sent all of the '32' bytes.
Received the byte/char '' from the connection.
Robot is stopped, going to send stop.
Sent all of the '32' bytes.
Received the byte/char '' from the connection.
Robot is stopped, going to send stop.
Sent all of the '32' bytes.
Received the byte/char '' from the connection.
Robot is stopped, going to send stop.
Sent all of the '32' bytes.
Received the byte/char '' from the connection.
Robot is stopped, going to send stop.
Sent all of the '32' bytes.
Received the byte/char '' from the connection.
Robot is stopped, going to senrob - invkin!
Before: Vector3D(-0.0499196, -0.12251, 0.74303)
After: Vector3D(-0.0499196, -0.12251, 0.74303)




--loaded

d stop.
Sent all of the '32' bytes.
Received the byte/char '' from the connection.
Robot is stopped, going to send stop.
Sent all of the '32' bytes.
Received the byte/char '' from the connection.
Robot is stopped, going to send stop.
Sent all of the '32' bytes.
Received the byte/char '' from the connection.
Robot is stopped, going to send stop.
Sent all of the '32' bytes.
Received the byte/char '' from the connection.
Robot is stopped, going to send stop.
Sent all of the '32' bytes.
Received the byte/char '' from the connection.
Robot is stopped, going to send stop.
Sent all of the '32' bytes.
Received the byte/char '' from the connection.
Robot is stopped, going to send stop.
Sent all of the '32' bytes.
Received the byte/char '' from the connection.
Robot is stopped, going to send stop.
Sent all of the '32' bytes.
Received the byte/char '' from the connection.
Robot is stopped, going to send stop.
Sent all of the '32' bytes.
Received the byte/char '' from the connection.
Robot is stopped, going to send stop.
Sent all of the '32' bytes.
Received the byte/char '' from the connection.
Robot is stopped, going to send stop.
Sent all of the '32' bytes.
Received the byte/char '' from the connection.
Robot is stopped, going to send stop.
Sent all of the '32' bytes.
Received the byte/char '' from the connection.
Robot is stopped, going to send stop.
Sent all of the '32' bytes.
Received the byte/char '' from the connection.
Robot is stopped, going to send stop.
Sent all of the '32' bytes.
Received the byte/char '' from the connection.
Robot is stopped, going to send stop.
Sent all of the '32' bytes.
Received the byte/char '' from the connection.
Robot is stopped, going to send stop.
Sent all of the '32' bytes.
Received the byte/char '' from the connection.
Robot is stopped, going to send stop.
Sent all of the '32' bytes.
Received the byte/char '' from the connection.
Robot is stopped, going to send stop.
Sent all of the '32' bytes.
Received the byte/char '' from the connection.
Robot is stopped, going to send stop.
Sent all of the '32' bytes.
Received the byte/char '' from the connection.
Robot is stopped, going to send stop.
Sent all of the '32' bytes.
Received the byte/char '' from the connection.
Robot is stopped, going to send stop.
Sent all of the '32' bytes.
Received the byte/char '' from the connection.
Robot is stopped, going to send stop.
Sent all of the '32' bytes.
Received the byte/char '' from the connection.
Robot is stopped, going to send stop.
Sent all of the '32' bytes.
Received the byte/char '' from the connection.
Robot is stopped, going to send stop.
Sent all of the '32' bytes.
Received the byte/char '' from the connection.
Robot is stopped, going to send stop.
Sent all of the '32' bytes.
Received the byte/char '' from the connection.
Robot is stopped, going to send stop.
Sent all of the '32' bytes.
Received the byte/char '' from the connection.
Robot is stopped, going to send stop.
Sent all of the '32' bytes.
Received the byte/char '' from the connection.
Robot is stopped, going to send stop.
Sent all of the '32' bytes.
Received the byte/char '' from the connection.
Robot is stopped, going to send stop.
Sent all of the '32' bytes.
Received the byte/char '' from the connection.
Robot is stopped, going to send stop.
Sent all of the '32' bytes.
Received the byte/char '' from the connection.
Robot is stopped, going to send stop.
Sent all of the '32' bytes.
Received the byte/char '' from the connection.
Robot is stopped, going to send stop.
Sent all of the '32' bytes.
Received the byte/char '' from the connection.
Robot is stopped, going to send stop.
Sent all of the '32' bytes.
Received the byte/char '' from the connection.
Robot is stopped, going to send stop.
Sent all of the '32' bytes.
Received the byte/char '' from the connection.
Robot is stopped, going to send stop.
Sent all of the '32' bytes.
Received the byte/char '' from the connection.
Robot is stopped, going to send stop.
Sent all of the '32' bytes.
Received the byte/char '' from the connection.
Robot is stopped, going to send stop.
Sent all of the '32' bytes.
Received the byte/char '' from the connection.
Robot is stopped, going to send stop.
Sent all of the '32' bytes.
Received the byte/char '' from the connection.
Robot is stopped, going to send stop.
Sent all of the '32' bytes.
Received the byte/char '' from the connection.
Robot is stopped, going to send stop.
Sent all of the '32' bytes.
Received the byte/char '' from the connection.
Robot is stopped, going to send stop.
Sent all of the '32' bytes.
Received the byte/char '' from the connection.
Robot is stopped, going to send stop.
Sent all of the '32' bytes.
Received the byte/char '' from the connection.
Robot is stopped, going to send stop.
Sent all of the '32' bytes.
Received the byte/char '' from the connection.
Robot is stopped, going to send stop.
Sent all of the '32' bytes.
Received the byte/char '' from the connection.
Robot is stopped, going to send stop.
Sent all of the '32' bytes.
Received the byte/char '' from the connection.
Robot is stopped, going to send stop.
Sent all of the '32' bytes.
Received the byte/char '' from the connection.
Robot is stopped, going to send stop.
Sent all of the '32' bytes.
Received the byte/char '' from the connection.
Robot is stopped, going to send stop.
Sent all of the '32' bytes.
Received the byte/char '' from the connection.
Robot is stopped, going to send stop.
Sent all of the '32' bytes.
Received the byte/char '' from the connection.
Robot is stopped, going to send stop.
Sent all of the '32' bytes.
Received the byte/char '' from the connection.
Robot is stopped, going to send stop.
Sent all of the '32' bytes.
Received the byte/char '' from the connection.
Robot is stopped, going to send stop.
Sent all of the '32' bytes.
Received the byte/char '' from the connection.
Robot is stopped, going to send stop.
Sent all of the '32' bytes.
Received the byte/char '' from the connection.
Robot is stopped, going to send stop.
Sent all of the '32' bytes.
Received the byte/char '' from the connection.
Robot is stopped, going to send stop.
Sent all of the '32' bytes.
Received the byte/char '' from the connection.
Robot is stopped, going to send stop.
Sent all of the '32' bytes.
Received the byte/char '' from the connection.
Robot is stopped, going to send stop.
Sent all of the '32' bytes.
Received the byte/char '' from the connection.
Robot is stopped, going to send stop.
Sent all of the '32' bytes.
Received the byte/char '' from the connection.
Robot is stopped, going to send stop.
Sent all of the '32' bytes.
Received the byte/char '' from the connection.
Robot is stopped, going to send stop.
Sent all of the '32' bytes.
Received the byte/char '' from the connection.
Robot is stopped, going to send stop.
Sent all of the '32' bytes.
Received the byte/char '' from the connection.
Robot is stopped, going to send stop.
Sent all of the '32' bytes.
Received the byte/char '' from the connection.
Robot is stopped, going to send stop.
Sent all of the '32' bytes.
Received the byte/char '' from the connection.
Robot is stopped, going to send stop.
Sent all of the '32' bytes.
Received the byte/char '' from the connection.
Robot is stopped, going to send stop.
Sent all of the '32' bytes.
Received the byte/char '' from the connection.
Robot is stopped, going to send stop.
Sent all of the '32' bytes.
Received the byte/char '' from the connection.
Robot is stopped, going to send stop.
Sent all of the '32' bytes.
Received the byte/char '' from the connection.
Robot is stopped, going to send stop.
Sent all of the '32' bytes.
Received the byte/char '' from the connection.
Robot is stopped, going to send stop.
Sent all of the '32' bytes.
Received the byte/char '' from the connection.
Robot is stopped, going to send stop.
Sent all of the '32' bytes.
Received the byte/char '' from the connection.
Robot is stopped, going to send stop.
Sent all of the '32' bytes.
Received the byte/char '' from the connection.
Robot is stopped, going to send stop.
Sent all of the '32' bytes.
Received the byte/char '' from the connection.
Robot is stopped, going to send stop.
Sent all of the '32' bytes.
Received the byte/char '' from the connection.
Robot is stopped, going to send stop.
Sent all of the '32' bytes.
Received the byte/char '' from the connection.
Robot is stopped, going to send stop.
Sent all of the '32' bytes.
Received the byte/char '' from the connection.
Robot is stopped, going to send stop.
Sent all of the '32' bytes.
Received the byte/char '' from the connection.
Robot is stopped, going to send stop.
Sent all of the '32' bytes.
Received the byte/char '' from the connection.
Robot is stopped, going to send stop.
Sent all of the '32' bytes.
Received the byte/char '' from the connection.
Robot is stopped, going to send stop.
Sent all of the '32' bytes.
Received the byte/char '' from the connection.
Robot is stopped, going to send stop.
Sent all of the '32' bytes.
Received the byte/char '' from the connection.
Robot is stopped, going to send stop.
Sent all of the '32' bytes.
Received the byte/char '' from the connection.
Robot is stopped, going to send stop.
Sent all of the '32' bytes.
Received the byte/char '' from the connection.
Robot is stopped, going to send stop.
Sent all of the '32' bytes.
Received the byte/char '' from the connection.
Robot is stopped, going to send stop.
Sent all of the '32' bytes.
Received the byte/char '' from the connection.
Robot is stopped, going to send stop.
Sent all of the '32' bytes.
Received the byte/char '' from the connection.
Robot is stopped, going to send stop.
Sent all of the '32' bytes.
Received the byte/char '' from the connection.
Robot is stopped, going to send stop.
Sent all of the '32' bytes.
Received the byte/char '' from the connection.
Robot is stopped, going to send stop.
Sent all of the '32' bytes.
Received the byte/char '' from the connection.
Robot is stopped, going to send stop.
Sent all of the '32' bytes.
Received the byte/char '' from the connection.
Robot is stopped, going to send stop.
Sent all of the '32' bytes.
Received the byte/char '' from the connection.
Robot is stopped, going to send stop.
Sent all of the '32' bytes.
Received the byte/char '' from the connection.
Robot is stopped, going to send stop.
Sent all of the '32' bytes.
Received the byte/char '' from the connection.
Robot is stopped, going to send stop.
Sent all of the '32' bytes.
Received the byte/char '' from the connection.
Robot is stopped, going to send stop.
Sent all of the '32' bytes.
Received the byte/char '' from the connection.
Robot is stopped, going to send stop.
Sent all of the '32' bytes.
Received the byte/char '' from the connection.
Robot is stopped, going to send stop.
Sent all of the '32' bytes.
Received the byte/char '' from the connection.
Robot is stopped, going to send stop.
Sent all of the '32' bytes.
Received the byte/char '' from the connection.
Robot is stopped, going to send stop.
Sent all of the '32' bytes.
Received the byte/char '' from the connection.
Robot is stopped, going to send stop.
Sent all of the '32' bytes.
Received the byte/char '' from the connection.
Robot is stopped, going to send stop.
Sent all of the '32' bytes.
Received the byte/char '' from the connection.
Robot is stopped, going to send stop.
Sent all of the '32' bytes.
Received the byte/char '' from the connection.
Robot is stopped, going to send stop.
Sent all of the '32' bytes.
Received the byte/char '' from the connection.
Robot is stopped, going to send stop.
Sent all of the '32' bytes.
Received the byte/char '' from the connection.
Robot is stopped, going to send stop.
Sent all of the '32' bytes.
Received the byte/char '' from the connection.
Robot is stopped, going to send stop.
Sent all of the '32' bytes.
Received the byte/char '' from the connection.
Robot is stopped, going to send stop.
Sent all of the '32' bytes.
Received the byte/char '' from the connection.
Robot is stopped, going to send stop.
Sent all of the '32' bytes.
Received the byte/char '' from the connection.
Robot is stopped, going to send stop.
Sent all of the '32' bytes.
Received the byte/char '' from the connection.
Robot is stopped, going to send stop.
Sent all of the '32' bytes.
Received the byte/char '' from the connection.
Robot is stopped, going to send stop.
Sent all of the '32' bytes.
Received the byte/char '' from the connection.
Robot is stopped, going to send stop.
Sent all of the '32' bytes.
Received the byte/char '' from the connection.
Robot is stopped, going to send stop.
Sent all of the '32' bytes.
Received the byte/char '' from the connection.
Robot is stopped, going to send stop.
Sent all of the '32' bytes.
Received the byte/char '' from the connection.
Robot is stopped, going to send stop.
Sent all of the '32' bytes.
Received the byte/char '' from the connection.
Robot is stopped, going to send stop.
Sent all of the '32' bytes.
Received the byte/char '' from the connection.
Robot is stopped, going to send stop.
Sent all of the '32' bytes.
Received the byte/char '' from the connection.
Robot is stopped, going to send stop.
Sent all of the '32' bytes.
Received the byte/char '' from the connection.
Robot is stopped, going to send stop.
Sent all of the '32' bytes.
Received the byte/char '' from the connection.
Robot is stopped, going to send stop.
Sent all of the '32' bytes.
Received the byte/char '' from the connection.
Robot is stopped, going to send stop.
Sent all of the '32' bytes.
Received the byte/char '' from the connection.
Robot is stopped, going to send stop.
Sent all of the '32' bytes.
Received the byte/char '' from the connection.
Robot is stopped, going to send stop.
Sent all of the '32' bytes.
Received the byte/char '' from the connection.
Robot is stopped, going to send stop.
Sent all of the '32' bytes.
Received the byte/char '' from the connection.
Robot is stopped, going to send stop.
Sent all of the '32' bytes.
Received the byte/char '' from the connection.
Robot is stopped, going to send stop.
Sent all of the '32' bytes.
Received the byte/char '' from the connection.
Robot is stopped, going to send stop.
Sent all of the '32' bytes.
Received the byte/char '' from the connection.
Robot is stopped, going to send stop.
Sent all of the '32' bytes.
Received the byte/char '' from the connection.
Robot is stopped, going to send stop.
Sent all of the '32' bytes.
Received the byte/char '' from the connection.
Robot is stopped, going to send stop.
Sent all of the '32' bytes.
Received the byte/char '' from the connection.
Robot is stopped, going to send stop.
Sent all of the '32' bytes.
Received the byte/char '' from the connection.
Robot is stopped, going to send stop.
Sent all of the '32' bytes.
Received the byte/char '' from the connection.
Robot is stopped, going to send stop.
Sent all of the '32' bytes.
Received the byte/char '' from the connection.
Robot is stopped, going to send stop.
Sent all of the '32' bytes.
Received the byte/char '' from the connection.
Robot is stopped, going to send stop.
Sent all of the '32' bytes.
Received the byte/char '' from the connection.
Robot is stopped, going to send stop.
Sent all of the '32' bytes.
Received the byte/char '' from the connection.
Robot is stopped, going to send stop.
Sent all of the '32' bytes.
Received the byte/char '' from the connection.
Robot is stopped, going to send stop.
Sent all of the '32' bytes.
Received the byte/char '' from the connection.
Robot is stopped, going to send stop.
Sent all of the '32' bytes.
Received the byte/char '' from the connection.
Robot is stopped, going to send stop.
Sent all of the '32' bytes.
Received the byte/char '' from the connection.
Robot is stopped, going to send stop.
Sent all of the '32' bytes.
Received the byte/char '' from the connection.
Robot is stopped, going to send stop.
Sent all of the '32' bytes.
Received the byte/char '' from the connection.
Robot is stopped, going to send stop.
Sent all of the '32' bytes.
Received the byte/char '' from the connection.
Robot is stopped, going to send stop.
Sent all of the '32' bytes.
Received the byte/char '' from the connection.
Robot is stopped, going to send stop.
Sent all of the '32' bytes.
Received the byte/char '' from the connection.
Robot is stopped, going to send stop.
Sent all of the '32' bytes.
Received the byte/char '' from the connection.
Robot is stopped, going to send stop.
Sent all of the '32' bytes.
Received the byte/char '' from the connection.
Robot is stopped, going to send stop.
Sent all of the '32' bytes.
Received the byte/char '' from the connection.
Robot is stopped, going to send stop.
Sent all of the '32' bytes.
Received the byte/char '' from the connection.
Robot is stopped, going to send stop.
Sent all of the '32' bytes.
Received the byte/char '' from the connection.
Robot is stopped, going to send stop.
Sent all of the '32' bytes.
Received the byte/char '' from the connection.
Robot is stopped, going to send stop.
Sent all of the '32' bytes.
Received the byte/char '' from the connection.
Robot is stopped, going to send stop.
Sent all of the '32' bytes.
Received the byte/char '' from the connection.
Robot is stopped, going to send stop.
Sent all of the '32' bytes.
Received the byte/char '' from the connection.
Robot is stopped, going to send stop.
Sent all of the '32' bytes.
Received the byte/char '' from the connection.
Robot is stopped, going to send stop.
Sent all of the '32' bytes.
Received the byte/char '' from the connection.
Robot is stopped, going to send stop.
Sent all of the '32' bytes.
Received the byte/char '' from the connection.
Robot is stopped, going to send stop.
Sent all of the '32' bytes.
Received the byte/char '' from the connection.
Robot is stopped, going to send stop.
Sent all of the '32' bytes.
Received the byte/char '' from the connection.
Robot is stopped, going to send stop.
Sent all of the '32' bytes.
Received the byte/char '' from the connection.
Robot is stopped, going to send stop.
Sent all of the '32' bytes.
Received the byte/char '' from the connection.
Robot is stopped, going to send stop.
Sent all of the '32' bytes.
Received the byte/char '' from the connection.
Robot is stopped, going to send stop.
Sent all of the '32' bytes.
Received the byte/char '' from the connection.
Robot is stopped, going to send stop.
Sent all of the '32' bytes.
Received the byte/char '' from the connection.
Robot is stopped, going to send stop.
Sent all of the '32' bytes.
Received the byte/char '' from the connection.
Robot is stopped, going to send stop.
Sent all of the '32' bytes.
Received the byte/char '' from the connection.
Robot is stopped, going to send stop.
Sent all of the '32' bytes.
Received the byte/char '' from the connection.
Robot is stopped, going to send stop.
Sent all of the '32' bytes.
Received the byte/char '' from the connection.
Robot is stopped, going to send stop.
Sent all of the '32' bytes.
Received the byte/char '' from the connection.
Robot is stopped, going to send stop.
Sent all of the '32' bytes.
Received the byte/char '' from the connection.
Robot is stopped, going to send stop.
Sent all of the '32' bytes.
Received the byte/char '' from the connection.
Robot is stopped, going to send stop.
Sent all of the '32' bytes.
Received the byte/char '' from the connection.
Robot is stopped, going to send stop.
Sent all of the '32' bytes.
Received the byte/char '' from the connection.
Robot is stopped, going to send stop.
Sent all of the '32' bytes.
Received the byte/char '' from the connection.
Robot is stopped, going to send stop.
Sent all of the '32' bytes.
Received the byte/char '' from the connection.
Robot is stopped, going to send stop.
Sent all of the '32' bytes.
Received the byte/char '' from the connection.
Robot is stopped, going to send stop.
Sent all of the '32' bytes.
Received the byte/char '' from the connection.
Robot is stopped, going to send stop.
Sent all of the '32' bytes.
Received the byte/char '' from the connection.
Robot is stopped, going to send stop.
Sent all of the '32' bytes.
Received the byte/char '' from the connection.
Robot is stopped, going to send stop.
Sent all of the '32' bytes.
Received the byte/char '' from the connection.
Robot is stopped, going to send stop.
Sent all of the '32' bytes.
Received the byte/char '' from the connection.
Robot is stopped, going to send stop.
Sent all of the '32' bytes.
Received the byte/char '' from the connection.
Robot is stopped, going to send stop.
Sent all of the '32' bytes.
Received the byte/char '' from the connection.
Robot is stopped, going to send stop.
Sent all of the '32' bytes.
Received the byte/char '' from the connection.
Robot is stopped, going to send stop.
Sent all of the '32' bytes.
Received the byte/char '' from the connection.
Robot is stopped, going to send stop.
Sent all of the '32' bytes.
